X:570
T:(untitled)
C:John Malchair's Third Collection of Tunes
F:https://www.vwml.org/record/Malchair/3619/p57
F:www.vwml.org/topics/historic-dance-and-tune-books/Malchair
Z:Eric Conrad Jan 2020
N:NB1 The forte dynamic mark at tune start is missing in the MS
M:3/4
L:1/8
K:Eb
P:A
|: "_NB1"e2 | !f!E4F2 | (G4A2) | .B2(B2G2) | A2F2z2 |
!p!(A4F2) | (A4F2) | D2DEFE | E2z2 :|
P:B
|: !f!B,=A, | B,2B2B2 | FGFEDC | B,2d2d2 | fedcB2 |
!p!(A4F2) | (A4F2) | D2DEFD | E2z2 :|

%
